X:557
T:Badd557- Hallow my fancie    mr mclaughlans way, by mr beck
S:Balcarres lute MS, translated by Rod MacKillop
N:melody only, not full lute score
Q:1/4=120
L:1/4
M:C
K:C
GG/G/GA/B/|c2C,2|cB/A/G3/2G/|A/G/ F/G/EC|\
c/B/ A/G/ ^FD|d3/2 c/ BG|ed/c/d3/2 c/|c2C,2::\
ed/c/dc/B/|A/B/ c/d/ BG|AE/^F/ G3/2E/|D/E/ F/G/ EC|\
E/D/ E/^F/ G3/2 G/|A/B/ c/d/BG|ed/c/dG|A/G/ A/B/cC,:|]
